media/kauf_bkt/trefoil/trefoil_ab.svg

<svg xmlns:inkscape="http://www.inkscape.org/namespaces/inkscape" xmlns:sodipodi="http://sodipodi.sourceforge.net/DTD/sodipodi-0.dtd" xmlns="http://www.w3.org/2000/svg" xmlns:svg="http://www.w3.org/2000/svg" xmlns:vectornator="http://vectornator.io" stroke-miterlimit="10" style="fill-rule:nonzero;clip-rule:evenodd;stroke-linecap:round;stroke-linejoin:round;" version="1.1" viewBox="0 0 1000 1000" xml:space="preserve" id="svg8" sodipodi:docname="trefoil_ab.svg" inkscape:version="1.3 (0e150ed6c4, 2023-07-21)" class="">
    <sodipodi:namedview id="namedview8" pagecolor="#ffffff" bordercolor="#666666" borderopacity="1.0" inkscape:showpageshadow="2" inkscape:pageopacity="0.0" inkscape:pagecheckerboard="0" inkscape:deskcolor="#d1d1d1" inkscape:zoom="0.35850314" inkscape:cx="375.17105" inkscape:cy="-62.760957" inkscape:window-width="1920" inkscape:window-height="1120" inkscape:window-x="-11" inkscape:window-y="-11" inkscape:window-maximized="1" inkscape:current-layer="Layer-1"/>

    <defs id="defs1"/>

<g clip-path="url(#ArtboardFrame_66)" id="Layer-1" vectornator:layerName="Layer 1">





<clipPath id="ClipPath">

            <path d="M678.954 246.428L591.211 395.591L759.035 385.372L950.078 339.435L1240.51 636.005L700.889 1161.58L-96.6902 1127.36L-119.503 232.39L345.254 460.923L430.285 382.074L195.509 155.201L532.865-176.824L1052.97 202.884L678.954 246.428Z" id="path5"/>

        </clipPath>

        <path d="m 747.53286,224.54551 c -9.1093,-241.862192 -409.069,-300.255527 -474.53579,-13.55254 m 12.94297,240.51434 C 314.24997,559.9772 371.75828,690.95239 468.895,846.757" fill="none" opacity="1" class="" stroke="#ffb86c" stroke-linecap="round" stroke-linejoin="round" stroke-width="28" id="path6" style="clip-rule:evenodd;fill-rule:nonzero;stroke-linecap:round;stroke-linejoin:round" sodipodi:nodetypes="cccc"/>
        <path d="M 714.579,382.06 C 395.0709,1637.5083 -242.93684,569.8782 138.3888,372.29167" fill="none" opacity="1" class="" stroke="#ffb86c" stroke-linecap="round" stroke-linejoin="round" stroke-width="28" id="path7" style="clip-rule:evenodd;fill-rule:nonzero;stroke-linecap:round;stroke-linejoin:round" sodipodi:nodetypes="cc"/>
        <path d="m 395.89445,322.2045 c 87.26109,-8.33978 162.99704,-7.75914 228.31019,-0.0249 M 846.78649,396.123 C 1178.0184,616.83016 812.94439,1199.1316 525.333,902.819" fill="none" opacity="1" class="" stroke="#ffb86c" stroke-linecap="round" stroke-linejoin="round" stroke-width="28" id="path8" style="clip-rule:evenodd;fill-rule:nonzero;stroke-linecap:round;stroke-linejoin:round" sodipodi:nodetypes="cccc"/>
        <path d="M387.653 322.947C311.176 330.165 259.019 354.123 284.1 444.149" fill="none" opacity="1" class="" stroke="#ff5555" stroke-linecap="round" stroke-linejoin="round" stroke-width="28" id="path1" style="fill-rule:nonzero;clip-rule:evenodd;stroke-linecap:round;stroke-linejoin:round"/>
        <path d="M631.197 323.446C662.568 330.202 745.473 303.564 747.986 232.171" fill="none" opacity="1" class="" stroke="#ff5555" stroke-linecap="round" stroke-linejoin="round" stroke-width="28" id="path2" style="fill-rule:nonzero;clip-rule:evenodd;stroke-linecap:round;stroke-linejoin:round"/>
        <path d="M270.732 221.336C255.055 272.193 243.027 327.621 144.512 369.175" fill="none" opacity="1" class="" stroke="#ff5555" stroke-linecap="round" stroke-linejoin="round" stroke-width="28" id="path3" style="fill-rule:nonzero;clip-rule:evenodd;stroke-linecap:round;stroke-linejoin:round"/>
        <path d="M712.229 389.517C728.712 327.209 816.583 376.199 837.35 390.256" fill="none" opacity="1" class="" stroke="#ff5555" stroke-linecap="round" stroke-linejoin="round" stroke-width="28" id="path4" style="fill-rule:nonzero;clip-rule:evenodd;stroke-linecap:round;stroke-linejoin:round"/>

    </g>

</svg>

<svg xmlns="http://www.w3.org/2000/svg" xmlns:vectornator="http://vectornator.io" xml:space="preserve" stroke-miterlimit="10" style="fill-rule:nonzero;clip-rule:evenodd;stroke-linecap:round;stroke-linejoin:round" viewBox="0 0 1000 1000"><g vectornator:layerName="Layer 1" fill="none" stroke-width="28" clip-path="url(#ArtboardFrame_66)"><path stroke="#ffb86c" d="M747.533 224.546c-9.11-241.863-409.07-300.256-474.536-13.553m12.943 240.514c28.31 108.47 85.818 239.445 182.955 395.25" style="clip-rule:evenodd;fill-rule:nonzero;stroke-linecap:round;stroke-linejoin:round"/><path stroke="#ffb86c" d="M714.579 382.06c-319.508 1255.448-957.516 187.818-576.19-9.768" style="clip-rule:evenodd;fill-rule:nonzero;stroke-linecap:round;stroke-linejoin:round"/><path stroke="#ffb86c" d="M395.894 322.205c87.262-8.34 162.997-7.76 228.31-.025m222.582 73.943c331.232 220.707-33.842 803.009-321.453 506.696" style="clip-rule:evenodd;fill-rule:nonzero;stroke-linecap:round;stroke-linejoin:round"/><path stroke="#f55" d="M387.653 322.947c-76.477 7.218-128.634 31.176-103.553 121.202M631.197 323.446c31.371 6.756 114.276-19.882 116.789-91.275M270.732 221.336c-15.677 50.857-27.705 106.285-126.22 147.839M712.229 389.517c16.483-62.308 104.354-13.318 125.121.739" style="fill-rule:nonzero;clip-rule:evenodd;stroke-linecap:round;stroke-linejoin:round"/></g></svg>
